static/images/pieces/makruk/ada/rP.svg

<svg height="360" viewBox="0 0 95.249998 95.250003" width="360" xmlns="http://www.w3.org/2000/svg" xmlns:xlink="http://www.w3.org/1999/xlink"><radialGradient id="a" cx="47.625" cy="249.37497" gradientTransform="matrix(.00005254 -3.0232565 3.0232563 .00000043 -706.30195 393.35746)" gradientUnits="userSpaceOnUse" r="11.377083"><stop offset="0" stop-color="#ff2a2a"/><stop offset="1" stop-color="#500"/></radialGradient><radialGradient id="b" cx="47.625" cy="249.37497" gradientTransform="matrix(-.00000399 -1.1111107 1.1111111 .00000003 -229.45811 302.29161)" gradientUnits="userSpaceOnUse" r="16.66875"><stop offset="0" stop-color="#500"/><stop offset=".71428567" stop-color="#ff2a2a"/><stop offset="1" stop-color="#500"/></radialGradient><radialGradient id="c" cx="47.625" cy="249.37497" gradientTransform="matrix(-.00000152 -1.1445779 1.1445783 -.00000007 -237.80411 303.8855)" gradientUnits="userSpaceOnUse" r="21.960416"><stop offset="0" stop-color="#500"/><stop offset=".73684192" stop-color="#ff2a2a"/><stop offset="1" stop-color="#500"/></radialGradient><radialGradient id="d" cx="47.625" cy="249.37497" gradientTransform="matrix(-.00000648 -1.1165049 1.1165049 -.0000002 -230.80306 302.54857)" gradientUnits="userSpaceOnUse" r="27.252082"><stop offset="0" stop-color="#500"/><stop offset=".78260881" stop-color="#ff2a2a"/><stop offset="1" stop-color="#500"/></radialGradient><filter id="e" color-interpolation-filters="sRGB"><feFlood flood-opacity=".498039" result="flood"/><feComposite in="flood" in2="SourceGraphic" operator="in" result="composite1"/><feGaussianBlur in="composite1" result="blur" stdDeviation="1"/><feOffset dx="1.5" dy="1.5" result="offset"/><feComposite in="SourceGraphic" in2="offset" operator="over" result="composite2"/></filter><g stroke="#000" stroke-width="2.116667" transform="translate(0 -201.74997)"><path d="m21.166668 249.37497a26.458332 26.458332 0 0 1 26.456602-26.45833 26.458332 26.458332 0 0 1 26.460062 26.45487 26.458332 26.458332 0 0 1 -26.453138 26.46179 26.458332 26.458332 0 0 1 -26.463525-26.4514" fill="url(#d)" filter="url(#e)"/><path d="m26.458334 249.37497a21.166666 21.166666 0 0 1 21.165282-21.16667 21.166666 21.166666 0 0 1 21.16805 21.1639 21.166666 21.166666 0 0 1 -21.162511 21.16944 21.166666 21.166666 0 0 1 -21.17082-21.16113" fill="url(#c)"/><path d="m31.75 249.37497a15.875 15.875 0 0 1 15.873962-15.875 15.875 15.875 0 0 1 15.876038 15.87292 15.875 15.875 0 0 1 -15.871884 15.87708 15.875 15.875 0 0 1 -15.878115-15.87085" fill="url(#b)"/><path d="m37.041667 249.37497a10.583333 10.583333 0 0 1 10.582641-10.58333 10.583333 10.583333 0 0 1 10.584025 10.58194 10.583333 10.583333 0 0 1 -10.581255 10.58472 10.583333 10.583333 0 0 1 -10.585411-10.58056" fill="url(#a)"/></g></svg>

<?xml version="1.0" encoding="UTF-8" standalone="no"?>
<!-- Created with Inkscape (http://www.inkscape.org/) -->

<svg
   xmlns:dc="http://purl.org/dc/elements/1.1/"
   xmlns:cc="http://creativecommons.org/ns#"
   xmlns:rdf="http://www.w3.org/1999/02/22-rdf-syntax-ns#"
   xmlns:svg="http://www.w3.org/2000/svg"
   xmlns="http://www.w3.org/2000/svg"
   xmlns:xlink="http://www.w3.org/1999/xlink"
   xmlns:sodipodi="http://sodipodi.sourceforge.net/DTD/sodipodi-0.dtd"
   xmlns:inkscape="http://www.inkscape.org/namespaces/inkscape"
   width="360"
   height="360"
   viewBox="0 0 95.249998 95.250003"
   version="1.1"
   id="svg8"
   sodipodi:docname="bia_r.svg"
   inkscape:version="0.92.5 (2060ec1f9f, 2020-04-08)">
  <defs
     id="defs2">
    <linearGradient
       inkscape:collect="always"
       id="linearGradient6162">
      <stop
         style="stop-color:#550000;stop-opacity:1"
         offset="0"
         id="stop6156" />
      <stop
         id="stop6158"
         offset="0.78260881"
         style="stop-color:#ff2a2a;stop-opacity:1" />
      <stop
         style="stop-color:#550000;stop-opacity:1"
         offset="1"
         id="stop6160" />
    </linearGradient>
    <linearGradient
       inkscape:collect="always"
       id="linearGradient6154">
      <stop
         style="stop-color:#550000;stop-opacity:1"
         offset="0"
         id="stop6148" />
      <stop
         id="stop6150"
         offset="0.73684192"
         style="stop-color:#ff2a2a;stop-opacity:1" />
      <stop
         style="stop-color:#550000;stop-opacity:1"
         offset="1"
         id="stop6152" />
    </linearGradient>
    <linearGradient
       id="linearGradient1531"
       inkscape:collect="always">
      <stop
         id="stop1527"
         offset="0"
         style="stop-color:#550000;stop-opacity:1" />
      <stop
         style="stop-color:#ff2a2a;stop-opacity:1"
         offset="0.71428567"
         id="stop1533" />
      <stop
         id="stop1529"
         offset="1"
         style="stop-color:#550000;stop-opacity:1" />
    </linearGradient>
    <linearGradient
       inkscape:collect="always"
       id="linearGradient883">
      <stop
         style="stop-color:#ff2a2a;stop-opacity:1"
         offset="0"
         id="stop879" />
      <stop
         style="stop-color:#550000;stop-opacity:1"
         offset="1"
         id="stop881" />
    </linearGradient>
    <radialGradient
       inkscape:collect="always"
       xlink:href="#linearGradient883"
       id="radialGradient885"
       cx="47.625"
       cy="249.37497"
       fx="47.625"
       fy="249.37497"
       r="11.377083"
       gradientUnits="userSpaceOnUse"
       gradientTransform="matrix(5.2540497e-5,-3.0232565,3.0232563,4.2735736e-7,-706.30195,393.35746)" />
    <radialGradient
       inkscape:collect="always"
       xlink:href="#linearGradient1531"
       id="radialGradient1525"
       cx="47.625"
       cy="249.37497"
       fx="47.625"
       fy="249.37497"
       r="16.66875"
       gradientUnits="userSpaceOnUse"
       gradientTransform="matrix(-3.9917445e-6,-1.1111107,1.1111111,3.003127e-8,-229.45811,302.29161)" />
    <radialGradient
       inkscape:collect="always"
       xlink:href="#linearGradient6154"
       id="radialGradient1535"
       cx="47.625"
       cy="249.37497"
       fx="47.625"
       fy="249.37497"
       r="21.960416"
       gradientUnits="userSpaceOnUse"
       gradientTransform="matrix(-1.5156078e-6,-1.1445779,1.1445783,-6.7640244e-8,-237.80411,303.8855)" />
    <radialGradient
       inkscape:collect="always"
       xlink:href="#linearGradient6162"
       id="radialGradient1545"
       cx="47.625"
       cy="249.37497"
       fx="47.625"
       fy="249.37497"
       r="27.252082"
       gradientUnits="userSpaceOnUse"
       gradientTransform="matrix(-6.4768257e-6,-1.1165049,1.1165049,-1.9920658e-7,-230.80306,302.54857)" />
    <filter
       style="color-interpolation-filters:sRGB;"
       inkscape:label="Drop Shadow"
       id="filter2320">
      <feFlood
         flood-opacity="0.498039"
         flood-color="rgb(0,0,0)"
         result="flood"
         id="feFlood2310" />
      <feComposite
         in="flood"
         in2="SourceGraphic"
         operator="in"
         result="composite1"
         id="feComposite2312" />
      <feGaussianBlur
         in="composite1"
         stdDeviation="1"
         result="blur"
         id="feGaussianBlur2314" />
      <feOffset
         dx="1.5"
         dy="1.5"
         result="offset"
         id="feOffset2316" />
      <feComposite
         in="SourceGraphic"
         in2="offset"
         operator="over"
         result="composite2"
         id="feComposite2318" />
    </filter>
  </defs>
  <sodipodi:namedview
     id="base"
     pagecolor="#ffffff"
     bordercolor="#666666"
     borderopacity="1.0"
     inkscape:pageopacity="0.0"
     inkscape:pageshadow="2"
     inkscape:zoom="2.8"
     inkscape:cx="128.56551"
     inkscape:cy="190.61404"
     inkscape:document-units="mm"
     inkscape:current-layer="layer1"
     showgrid="true"
     units="px"
     inkscape:window-width="1852"
     inkscape:window-height="1027"
     inkscape:window-x="4"
     inkscape:window-y="48"
     inkscape:window-maximized="0">
    <inkscape:grid
       type="xygrid"
       id="grid3721" />
  </sodipodi:namedview>
  <metadata
     id="metadata5">
    <rdf:RDF>
      <cc:Work
         rdf:about="">
        <dc:format>image/svg+xml</dc:format>
        <dc:type
           rdf:resource="http://purl.org/dc/dcmitype/StillImage" />
        <dc:title />
      </cc:Work>
    </rdf:RDF>
  </metadata>
  <g
     inkscape:label="Layer 1"
     inkscape:groupmode="layer"
     id="layer1"
     transform="translate(0,-201.74997)">
    <path
       style="fill:url(#radialGradient1545);stroke:#000000;stroke-width:2.11666667;stroke-miterlimit:4;stroke-dasharray:none;fill-opacity:1;filter:url(#filter2320)"
       id="path3752"
       sodipodi:type="arc"
       sodipodi:cx="47.625"
       sodipodi:cy="249.37497"
       sodipodi:rx="26.458332"
       sodipodi:ry="26.458332"
       sodipodi:start="3.1415927"
       sodipodi:end="3.1413309"
       sodipodi:open="true"
       d="M 21.166668,249.37497 A 26.458332,26.458332 0 0 1 47.62327,222.91664 26.458332,26.458332 0 0 1 74.083332,249.37151 26.458332,26.458332 0 0 1 47.630194,275.8333 26.458332,26.458332 0 0 1 21.166669,249.3819" />
    <path
       style="fill:url(#radialGradient1535);stroke:#000000;stroke-width:2.11666667;stroke-miterlimit:4;stroke-dasharray:none;fill-opacity:1"
       id="path3754"
       sodipodi:type="arc"
       sodipodi:cx="47.625"
       sodipodi:cy="249.37497"
       sodipodi:rx="21.166666"
       sodipodi:ry="21.166666"
       sodipodi:start="3.1415927"
       sodipodi:end="3.1413309"
       sodipodi:open="true"
       d="m 26.458334,249.37497 a 21.166666,21.166666 0 0 1 21.165282,-21.16667 21.166666,21.166666 0 0 1 21.16805,21.1639 21.166666,21.166666 0 0 1 -21.162511,21.16944 21.166666,21.166666 0 0 1 -21.17082,-21.16113" />
    <path
       style="fill:url(#radialGradient1525);stroke:#000000;stroke-width:2.11666667;stroke-miterlimit:4;stroke-dasharray:none;fill-opacity:1"
       id="path5301"
       sodipodi:type="arc"
       sodipodi:cx="47.625"
       sodipodi:cy="249.37497"
       sodipodi:rx="15.875"
       sodipodi:ry="15.875"
       sodipodi:start="3.1415927"
       sodipodi:end="3.1413309"
       sodipodi:open="true"
       d="M 31.75,249.37497 A 15.875,15.875 0 0 1 47.623962,233.49997 15.875,15.875 0 0 1 63.5,249.37289 15.875,15.875 0 0 1 47.628116,265.24997 15.875,15.875 0 0 1 31.750001,249.37912" />
    <path
       style="fill:url(#radialGradient885);stroke:#000000;stroke-width:2.11666667;stroke-miterlimit:4;stroke-dasharray:none;fill-opacity:1"
       id="path5303"
       sodipodi:type="arc"
       sodipodi:cx="47.625"
       sodipodi:cy="249.37497"
       sodipodi:rx="10.583333"
       sodipodi:ry="10.583333"
       sodipodi:start="3.1415927"
       sodipodi:end="3.1413309"
       sodipodi:open="true"
       d="M 37.041667,249.37497 A 10.583333,10.583333 0 0 1 47.624308,238.79164 10.583333,10.583333 0 0 1 58.208333,249.37358 10.583333,10.583333 0 0 1 47.627078,259.9583 10.583333,10.583333 0 0 1 37.041667,249.37774" />
  </g>
</svg>
